storage/app/icons/phosphoricons/bold/chalkboard-simple-bold.svg

<svg xmlns="http://www.w3.org/2000/svg" fill="currentColor" viewBox="0 0 256 256"><path d="M240 188h-4v-28a12 12 0 0 0-12-12h-64a12 12 0 0 0-12 12v28H44V60h168v60a12 12 0 0 0 24 0V56a20 20 0 0 0-20-20H40a20 20 0 0 0-20 20v132h-4a12 12 0 0 0 0 24h224a12 12 0 0 0 0-24m-68-16h40v16h-40Z"/></svg>

<svg xmlns="http://www.w3.org/2000/svg" viewBox="0 0 256 256" fill="currentColor"><path d="M240,188h-4V160a12,12,0,0,0-12-12H160a12,12,0,0,0-12,12v28H44V60H212v60a12,12,0,0,0,24,0V56a20,20,0,0,0-20-20H40A20,20,0,0,0,20,56V188H16a12,12,0,0,0,0,24H240a12,12,0,0,0,0-24Zm-68-16h40v16H172Z"/></svg>
